build/category/ForksSolid.svg

<svg xmlns="http://www.w3.org/2000/svg" fill="none" viewBox="0 0 24 24" focusable="false"><path d="M0 0H24V24H0z"/><path fill="#74767B" fill-rule="evenodd" d="M2 5C2 3.34315 3.34315 2 5 2L19 2C20.6569 2 22 3.34315 22 5L22 19C22 20.6569 20.6569 22 19 22L5 22C3.34315 22 2 20.6569 2 19L2 5ZM16.1538 20.057C15.9085 19.7948 15.9222 19.3835 16.1843 19.1382L17.7747 17.65L11.6518 17.65C9.63592 17.65 8.00176 16.0158 8.00176 14L8.00176 12.6571L4.6543 12.6571C4.29531 12.6571 4.0043 12.3661 4.0043 12.0071C4.0043 11.6481 4.29531 11.3571 4.6543 11.3571L8.00176 11.3571L8.00176 10C8.00176 7.98416 9.63592 6.35 11.6518 6.35L17.7036 6.35L16.1562 4.87518C15.8964 4.6275 15.8865 4.21606 16.1342 3.9562C16.3818 3.69634 16.7933 3.68647 17.0531 3.93415L19.8063 6.55827C19.8095 6.56128 19.8127 6.56434 19.8159 6.56744C19.8184 6.56996 19.821 6.57251 19.8235 6.57508C19.8768 6.62874 19.9188 6.6895 19.9495 6.75436C20.0647 6.99762 20.0196 7.29608 19.8193 7.49432C19.8136 7.5 19.8078 7.50554 19.8019 7.51097L17.0488 10.0873C16.7867 10.3326 16.3754 10.3189 16.1301 10.0568C15.8848 9.79468 15.8984 9.38335 16.1606 9.13806L17.7507 7.65L11.6518 7.65C10.3539 7.65 9.30176 8.70213 9.30176 10L9.30176 14C9.30176 15.2979 10.3539 16.35 11.6518 16.35L17.7271 16.35L16.18 14.8753C15.9201 14.6277 15.9102 14.2162 16.1579 13.9564C16.4056 13.6965 16.817 13.6866 17.0769 13.9343L19.8298 16.5583C19.8357 16.5638 19.8416 16.5695 19.8473 16.5752C19.9 16.6284 19.9417 16.6885 19.9723 16.7527C20.0573 16.9305 20.0563 17.1381 19.9715 17.3146C19.9401 17.3798 19.8973 17.4408 19.8431 17.4945C19.8373 17.5002 19.8315 17.5057 19.8257 17.5111L17.0725 20.0874C16.8104 20.3327 16.3991 20.3191 16.1538 20.057Z"/></svg>

<svg xmlns="http://www.w3.org/2000/svg" fill="none" viewBox="0 0 24 24" focusable="false"><path fill="#74767B" fill-rule="evenodd" d="M2 5c0-1.66 1.34-3 3-3h14c1.65 0 3 1.34 3 3v14c0 1.65-1.35 3-3 3H5c-1.66 0-3-1.35-3-3zm14.15 15.05a.65.65 0 0 1 .03-.92l1.59-1.48h-6.12C9.63 17.65 8 16.01 8 14v-1.35H4.65c-.36 0-.65-.29-.65-.65s.29-.65.65-.65H8V10c0-2.02 1.63-3.65 3.65-3.65h6.05l-1.55-1.48a.65.65 0 0 1-.02-.92c.25-.26.66-.27.92-.02l2.75 2.62c0 .01.01.01.01.01l.01.01q.075.075.12.18c.12.24.07.54-.13.74 0 .01-.01.01-.01.02l-2.76 2.57c-.26.25-.67.23-.91-.03a.64.64 0 0 1 .03-.92l1.59-1.49h-6.1C10.35 7.64 9.3 8.7 9.3 10v4c0 1.29 1.05 2.35 2.35 2.35h6.07l-1.55-1.48a.67.67 0 0 1-.02-.92c.25-.26.66-.27.92-.02l2.75 2.62c.01.01.02.01.02.02.05.05.1.11.13.18.08.18.08.38 0 .56-.03.06-.08.13-.13.18l-.02.02-2.75 2.57a.65.65 0 0 1-.92-.03"/></svg>
